Numix-GalliumOS/24/status/audio-input-microphone-high-panel.svg

<?xml version="1.0" encoding="UTF-8" standalone="no"?>
<svg
   xmlns:dc="http://purl.org/dc/elements/1.1/"
   xmlns:cc="http://creativecommons.org/ns#"
   xmlns:rdf="http://www.w3.org/1999/02/22-rdf-syntax-ns#"
   xmlns:svg="http://www.w3.org/2000/svg"
   xmlns="http://www.w3.org/2000/svg"
   xmlns:sodipodi="http://sodipodi.sourceforge.net/DTD/sodipodi-0.dtd"
   xmlns:inkscape="http://www.inkscape.org/namespaces/inkscape"
   width="24"
   height="24"
   viewBox="0 0 24 24"
   id="svg2"
   version="1.1"
   inkscape:version="0.91 r"
   sodipodi:docname="audio-input-microphone-high.svg">
  <metadata
     id="metadata44">
    <rdf:RDF>
      <cc:Work
         rdf:about="">
        <dc:format>image/svg+xml</dc:format>
        <dc:type
           rdf:resource="http://purl.org/dc/dcmitype/StillImage" />
      </cc:Work>
    </rdf:RDF>
  </metadata>
  <sodipodi:namedview
     pagecolor="#ffffff"
     bordercolor="#666666"
     borderopacity="1"
     objecttolerance="10"
     gridtolerance="10"
     guidetolerance="10"
     inkscape:pageopacity="0"
     inkscape:pageshadow="2"
     inkscape:window-width="1366"
     inkscape:window-height="747"
     id="namedview42"
     showgrid="false"
     inkscape:zoom="9.8333333"
     inkscape:cx="-5.1864407"
     inkscape:cy="12"
     inkscape:window-x="0"
     inkscape:window-y="21"
     inkscape:window-maximized="1"
     inkscape:current-layer="svg2" />
  <defs
     id="defs4" />
  <path
     style="fill:#ececec;fill-opacity:1"
     inkscape:connector-curvature="0"
     id="path32"
     d="M 8.6666664,3 C 6.8263517,3 5.3333327,4.5113406 5.3333327,6.3736566 l 0,5.6370874 c 0,1.862316 1.493019,3.373657 3.3333337,3.373657 C 10.506982,15.384401 12,13.87306 12,12.010744 L 12,6.3736566 C 12,4.5113406 10.506982,3 8.6666664,3 Z" />
  <path
     style="fill:#ececec;fill-opacity:1"
     inkscape:connector-curvature="0"
     id="path34"
     d="m 2,12 c 0,3.348588 2.3988539,6.113411 5.5567492,6.647036 l 0,1.228412 -1.1134984,0 0,1.124552 4.4468312,0 0,-1.124552 -1.1134975,0 0,-1.228412 C 12.934479,18.113411 15.333334,15.348588 15.333334,12 l -2.223416,0 c 0,2.485476 -1.987111,4.501791 -4.4432516,4.501791 -2.4525598,0 -4.4432509,-2.016315 -4.4432509,-4.501791 z" />
  <path
     style="fill:#ececec;fill-opacity:1"
     inkscape:connector-curvature="0"
     id="path36"
     d="m 22,5.2491047 c 0,1.242738 -0.995345,2.2491047 -2.223416,2.2491047 -1.22807,0 -2.219834,-1.0063667 -2.219834,-2.2491047 C 17.55675,4.0063667 18.548514,3 19.776584,3 21.004655,3 22,4.0063667 22,5.2491047 Z" />
  <path
     style="fill:#ececec;fill-opacity:1"
     inkscape:connector-curvature="0"
     id="path38"
     d="m 22,12 c 0,1.242738 -0.995345,2.249105 -2.223416,2.249105 -1.22807,0 -2.219834,-1.006367 -2.219834,-2.249105 0,-1.242738 0.991764,-2.249105 2.219834,-2.249105 C 21.004655,9.750895 22,10.757262 22,12 Z" />
  <path
     style="fill:#ececec;fill-opacity:1"
     inkscape:connector-curvature="0"
     id="path40"
     d="M 22,18.750895 C 22,19.993633 21.004655,21 19.776584,21 c -1.22807,0 -2.219834,-1.006367 -2.219834,-2.249105 0,-1.242738 0.991764,-2.249104 2.219834,-2.249104 1.228071,0 2.223416,1.006366 2.223416,2.249104 z" />
</svg>

<svg xmlns="http://www.w3.org/2000/svg" viewBox="0 0 24 24">
 <path d="m 8.667 3 c -1.84 0 -3.333 1.511 -3.333 3.374 l 0 5.637 c 0 1.862 1.493 3.374 3.333 3.374 c 1.84 0 3.333 -1.511 3.333 -3.374 l 0 -5.637 c 0 -1.862 -1.493 -3.374 -3.333 -3.374" style="fill:#ececec;fill-opacity:1"/>
 <path d="m 2 12 c 0 3.349 2.399 6.113 5.557 6.647 l 0 1.228 -1.113 0 0 1.125 4.447 0 0 -1.125 -1.113 0 0 -1.228 c 3.158 -0.534 5.557 -3.298 5.557 -6.647 l -2.223 0 c 0 2.485 -1.987 4.502 -4.443 4.502 -2.453 0 -4.443 -2.02 -4.443 -4.502 z" style="fill:#ececec;fill-opacity:1"/>
 <path d="m 22 5.249 c 0 1.243 -0.995 2.249 -2.223 2.249 -1.228 0 -2.22 -1.01 -2.22 -2.249 c 0 -1.243 0.992 -2.249 2.22 -2.249 1.228 0 2.223 1.01 2.223 2.249" style="fill:#ececec;fill-opacity:1"/>
 <path d="m 22 12 c 0 1.243 -0.995 2.249 -2.223 2.249 -1.228 0 -2.22 -1.01 -2.22 -2.249 0 -1.243 0.992 -2.249 2.22 -2.249 c 1.228 0 2.223 1.01 2.223 2.249" style="fill:#ececec;fill-opacity:1"/>
 <path d="m 22 18.751 c 0 1.243 -0.995 2.249 -2.223 2.249 c -1.228 0 -2.22 -1.01 -2.22 -2.249 0 -1.243 0.992 -2.249 2.22 -2.249 1.228 0 2.223 1.01 2.223 2.249 z" style="fill:#ececec;fill-opacity:1"/>
</svg>
